packages/illustrations/src/placeholder.svg

<svg width="124" height="124" viewBox="0 0 124 124" fill="none" xmlns="http://www.w3.org/2000/svg">
<circle cx="63.5" cy="62.5" r="43" fill="#EBEEF1" stroke="#B7C2CE"/>
<path d="M27.5 43C27.5 41.067 29.067 39.5 31 39.5H93C94.933 39.5 96.5 41.067 96.5 43V67.5H27.5V43Z" fill="#EBEEF1" stroke="#B7C2CE"/>
<circle r="3.5" transform="matrix(1 0 0 -1 16.5 82.5)" fill="#EBEEF1"/>
<circle r="2" transform="matrix(1 0 0 -1 21 40)" fill="#EBEEF1"/>
<circle r="2" transform="matrix(1 0 0 -1 104 34)" fill="#EBEEF1"/>
<circle r="3" transform="matrix(1 0 0 -1 108 43)" fill="#EBEEF1"/>
<path d="M40.5 32C40.5 30.6193 41.6193 29.5 43 29.5H70.7264C71.4047 29.5 72.0538 29.7756 72.5249 30.2635L84.7985 42.9754C85.2485 43.4415 85.5 44.0641 85.5 44.7119V59.5H40.5V32Z" fill="white" stroke="#B7C2CE"/>
<rect x="46" y="53" width="21" height="1" rx="0.5" fill="#B7C2CE" stroke="#B7C2CE" stroke-width="0.5"/>
<path d="M21.5183 63.7757C21.0365 61.0221 23.1555 58.5 25.951 58.5H56.4387C58.6949 58.5 60.8775 57.697 62.5958 56.2346L69.3023 50.5269C70.8397 49.2185 72.7926 48.5 74.8113 48.5H103.216C105.397 48.5 107.047 50.4734 106.66 52.62L99.3966 92.9743C98.925 95.594 96.6453 97.5 93.9836 97.5H32.0412C29.3694 97.5 27.0841 95.5799 26.6235 92.9481L21.5183 63.7757Z" fill="white" stroke="#B7C2CE"/>
<mask id="path-10-inside-1_1193_34612" fill="white">
<path fill-rule="evenodd" clip-rule="evenodd" d="M88.6218 91.2787C85.3463 93.6214 81.3341 95 77 95C65.9543 95 57 86.0457 57 75C57 63.9543 65.9543 55 77 55C88.0457 55 97 63.9543 97 75C97 79.1833 95.7157 83.0666 93.5198 86.2771L105.445 98.2028C106.812 99.5696 106.812 101.786 105.445 103.153C104.079 104.519 101.863 104.519 100.496 103.153L88.6218 91.2787ZM90 75C90 82.1797 84.1797 88 77 88C69.8203 88 64 82.1797 64 75C64 67.8203 69.8203 62 77 62C84.1797 62 90 67.8203 90 75Z"/>
</mask>
<path fill-rule="evenodd" clip-rule="evenodd" d="M88.6218 91.2787C85.3463 93.6214 81.3341 95 77 95C65.9543 95 57 86.0457 57 75C57 63.9543 65.9543 55 77 55C88.0457 55 97 63.9543 97 75C97 79.1833 95.7157 83.0666 93.5198 86.2771L105.445 98.2028C106.812 99.5696 106.812 101.786 105.445 103.153C104.079 104.519 101.863 104.519 100.496 103.153L88.6218 91.2787ZM90 75C90 82.1797 84.1797 88 77 88C69.8203 88 64 82.1797 64 75C64 67.8203 69.8203 62 77 62C84.1797 62 90 67.8203 90 75Z" fill="#DDE2E8"/>
<path d="M88.6218 91.2787L89.3289 90.5716L88.7295 89.9722L88.0401 90.4653L88.6218 91.2787ZM93.5198 86.2771L92.6944 85.7126L92.2259 86.3975L92.8127 86.9842L93.5198 86.2771ZM105.445 98.2028L104.738 98.9099L105.445 98.2028ZM77 96C81.5496 96 85.7639 94.5521 89.2035 92.0921L88.0401 90.4653C84.9286 92.6906 81.1187 94 77 94V96ZM56 75C56 86.598 65.402 96 77 96V94C66.5066 94 58 85.4934 58 75H56ZM77 54C65.402 54 56 63.402 56 75H58C58 64.5066 66.5066 56 77 56V54ZM98 75C98 63.402 88.598 54 77 54V56C87.4934 56 96 64.5066 96 75H98ZM94.3452 86.8417C96.6512 83.4701 98 79.3911 98 75H96C96 78.9755 94.7801 82.6631 92.6944 85.7126L94.3452 86.8417ZM92.8127 86.9842L104.738 98.9099L106.153 97.4957L94.2269 85.57L92.8127 86.9842ZM104.738 98.9099C105.715 99.8862 105.715 101.469 104.738 102.445L106.153 103.86C107.91 102.102 107.91 99.2531 106.153 97.4957L104.738 98.9099ZM104.738 102.445C103.762 103.422 102.179 103.422 101.203 102.445L99.7886 103.86C101.546 105.617 104.395 105.617 106.153 103.86L104.738 102.445ZM101.203 102.445L89.3289 90.5716L87.9147 91.9858L99.7886 103.86L101.203 102.445ZM77 89C84.732 89 91 82.732 91 75H89C89 81.6274 83.6274 87 77 87V89ZM63 75C63 82.732 69.268 89 77 89V87C70.3726 87 65 81.6274 65 75H63ZM77 61C69.268 61 63 67.268 63 75H65C65 68.3726 70.3726 63 77 63V61ZM91 75C91 67.268 84.732 61 77 61V63C83.6274 63 89 68.3726 89 75H91Z" fill="#778DA8" mask="url(#path-10-inside-1_1193_34612)"/>
<path d="M76.3859 69.668C75.8726 69.668 75.3812 69.734 74.9119 69.866C74.4426 69.9833 73.9512 70.1813 73.4379 70.46L72.6899 68.414C73.2326 68.106 73.8486 67.864 74.5379 67.688C75.2419 67.4973 75.9606 67.402 76.6939 67.402C77.5739 67.402 78.2999 67.5267 78.8719 67.776C79.4439 68.0107 79.8986 68.3113 80.2359 68.678C80.5732 69.0447 80.8079 69.448 80.9399 69.888C81.0719 70.328 81.1379 70.7533 81.1379 71.164C81.1379 71.6627 81.0426 72.11 80.8519 72.506C80.6759 72.902 80.4486 73.2687 80.1699 73.606C79.8912 73.9433 79.5906 74.266 79.2679 74.574C78.9452 74.8673 78.6446 75.1753 78.3659 75.498C78.0872 75.806 77.8526 76.136 77.6619 76.488C77.4859 76.84 77.3979 77.236 77.3979 77.676C77.3979 77.7493 77.3979 77.8373 77.3979 77.94C77.3979 78.028 77.4052 78.116 77.4199 78.204H75.1319C75.1026 78.0573 75.0806 77.9033 75.0659 77.742C75.0512 77.566 75.0439 77.4047 75.0439 77.258C75.0439 76.774 75.1246 76.3413 75.2859 75.96C75.4472 75.5787 75.6526 75.2267 75.9019 74.904C76.1512 74.5813 76.4152 74.2807 76.6939 74.002C76.9872 73.7233 77.2586 73.4447 77.5079 73.166C77.7572 72.8873 77.9626 72.6013 78.1239 72.308C78.2852 72.0147 78.3659 71.692 78.3659 71.34C78.3659 70.856 78.1972 70.46 77.8599 70.152C77.5372 69.8293 77.0459 69.668 76.3859 69.668ZM78.1019 81.548C78.1019 82.0613 77.9332 82.4793 77.5959 82.802C77.2586 83.1247 76.8406 83.286 76.3419 83.286C75.8579 83.286 75.4399 83.1247 75.0879 82.802C74.7506 82.4793 74.5819 82.0613 74.5819 81.548C74.5819 81.0347 74.7506 80.6167 75.0879 80.294C75.4399 79.9567 75.8579 79.788 76.3419 79.788C76.8406 79.788 77.2586 79.9567 77.5959 80.294C77.9332 80.6167 78.1019 81.0347 78.1019 81.548Z" fill="#778DA8"/>
<rect x="46" y="37" width="21" height="1" rx="0.5" fill="#B7C2CE" stroke="#B7C2CE" stroke-width="0.5"/>
<rect x="46" y="41" width="12" height="1" rx="0.5" fill="#B7C2CE" stroke="#B7C2CE" stroke-width="0.5"/>
<path d="M72 30.2733C72 29.8188 72.5572 29.6 72.8664 29.933L78.5 36L85.7654 44H75C73.3431 44 72 42.6569 72 41V30.2733Z" fill="#B7C2CE"/>
</svg>

<svg width="124" height="124" fill="none" xmlns="http://www.w3.org/2000/svg">
  <circle cx="63.5" cy="62.5" r="43" fill="#EBEEF1" stroke="#B7C2CE"/>
  <path fill="#EBEEF1" stroke="#B7C2CE" d="M27.5 43c0-2 1.6-3.5 3.5-3.5h62c2 0 3.5 1.6 3.5 3.5v24.5h-69V43Z"/>
  <circle r="3.5" fill="#EBEEF1" transform="matrix(1 0 0 -1 16.5 82.5)"/>
  <circle r="2" fill="#EBEEF1" transform="matrix(1 0 0 -1 21 40)"/>
  <circle r="2" fill="#EBEEF1" transform="matrix(1 0 0 -1 104 34)"/>
  <circle r="3" fill="#EBEEF1" transform="matrix(1 0 0 -1 108 43)"/>
  <path fill="#fff" stroke="#B7C2CE" d="M40.5 32c0-1.4 1.1-2.5 2.5-2.5h27.7c.7 0 1.4.3 1.8.8L84.8 43c.4.4.7 1 .7 1.7v14.8h-45V32Z"/>
  <rect width="21" height="1" x="46" y="53" fill="#B7C2CE" stroke="#B7C2CE" stroke-width=".5" rx=".5"/>
  <path fill="#fff" stroke="#B7C2CE" d="M21.5 63.8a4.5 4.5 0 0 1 4.5-5.3h30.4c2.3 0 4.5-.8 6.2-2.3l6.7-5.7c1.5-1.3 3.5-2 5.5-2h28.4c2.2 0 3.8 2 3.5 4.1L99.4 93a5.5 5.5 0 0 1-5.4 4.5H32c-2.6 0-5-2-5.4-4.6l-5-29.1Z"/>
  <mask id="a" fill="#fff">
    <path fill-rule="evenodd" d="M88.6 91.3a20 20 0 1 1 4.9-5l12 11.9a3.5 3.5 0 0 1-5 5l-11.9-12ZM90 75a13 13 0 1 1-26 0 13 13 0 0 1 26 0Z" clip-rule="evenodd"/>
  </mask>
  <path fill="#DDE2E8" fill-rule="evenodd" d="M88.6 91.3a20 20 0 1 1 4.9-5l12 11.9a3.5 3.5 0 0 1-5 5l-11.9-12ZM90 75a13 13 0 1 1-26 0 13 13 0 0 1 26 0Z" clip-rule="evenodd"/>
  <path fill="#778DA8" d="m88.6 91.3.7-.7-.6-.6-.7.5.6.8Zm5-5-1-.6-.4.7.6.6.7-.7Zm11.8 11.9-.7.7.7-.7ZM77 96a21 21 0 0 0 12.2-4L88 90.6A19 19 0 0 1 77 94v2ZM56 75a21 21 0 0 0 21 21v-2a19 19 0 0 1-19-19h-2Zm21-21a21 21 0 0 0-21 21h2a19 19 0 0 1 19-19v-2Zm21 21a21 21 0 0 0-21-21v2a19 19 0 0 1 19 19h2Zm-3.7 11.8A21 21 0 0 0 98 75h-2c0 4-1.2 7.7-3.3 10.7l1.6 1.1Zm-1.5.2 12 12 1.4-1.5-12-12-1.4 1.5Zm12 12c1 .9 1 2.5 0 3.4l1.4 1.5a4.5 4.5 0 0 0 0-6.4l-1.5 1.4Zm0 3.4c-1 1-2.6 1-3.6 0l-1.4 1.5a4.5 4.5 0 0 0 6.4 0l-1.5-1.5Zm-3.6 0L89.3 90.6 88 92l11.9 11.9 1.4-1.5ZM77 89a14 14 0 0 0 14-14h-2a12 12 0 0 1-12 12v2ZM63 75a14 14 0 0 0 14 14v-2a12 12 0 0 1-12-12h-2Zm14-14a14 14 0 0 0-14 14h2a12 12 0 0 1 12-12v-2Zm14 14a14 14 0 0 0-14-14v2a12 12 0 0 1 12 12h2Z" mask="url(#a)"/>
  <path fill="#778DA8" d="M76.4 69.7c-.5 0-1 0-1.5.2-.5 0-1 .3-1.5.6l-.7-2a5 5 0 0 1 1.8-.8c.7-.2 1.5-.3 2.2-.3.9 0 1.6.1 2.2.4.5.2 1 .5 1.3.9.4.3.6.7.7 1.2.2.4.2.9.2 1.3 0 .5 0 1-.2 1.3l-.7 1.1-1 1a10.7 10.7 0 0 0-1.5 1.9c-.2.3-.3.7-.3 1.2v.5h-2.3a4.4 4.4 0 0 1 .2-2.2c.1-.4.4-.8.6-1.1l.8-.9.8-.8.6-.9a1.6 1.6 0 0 0-.2-2.1c-.4-.4-.9-.5-1.5-.5ZM78 81.5c0 .6-.2 1-.5 1.3-.3.3-.8.5-1.3.5-.4 0-.9-.2-1.2-.5-.3-.3-.5-.7-.5-1.3 0-.5.2-.9.5-1.2.3-.3.8-.5 1.2-.5.5 0 1 .2 1.3.5.3.3.5.7.5 1.2Z"/>
  <rect width="21" height="1" x="46" y="37" fill="#B7C2CE" stroke="#B7C2CE" stroke-width=".5" rx=".5"/>
  <rect width="12" height="1" x="46" y="41" fill="#B7C2CE" stroke="#B7C2CE" stroke-width=".5" rx=".5"/>
  <path fill="#B7C2CE" d="M72 30.3c0-.5.6-.7.9-.4l5.6 6.1 7.3 8H75a3 3 0 0 1-3-3V30.3Z"/>
</svg>
